img/download-pdf.svg

<svg xmlns="http://www.w3.org/2000/svg" width="15" height="19" viewBox="0 0 15 19" fill="none">
  <g clip-path="url(#clip0_1979_44)">
    <path d="M1.00528 4.25353C0.90648 4.3498 0.850098 4.48127 0.850098 4.61924V16.5502C0.850136 17.4362 1.58881 18.1501 2.48875 18.1501H12.5115C12.9424 18.1501 13.364 17.9804 13.6692 17.6827C13.9787 17.3813 14.1501 16.9787 14.1501 16.5502V2.44998C14.1501 2.0215 13.9787 1.61884 13.6693 1.31758C13.3639 1.01982 12.9423 0.850098 12.5115 0.850098H4.716C4.57803 0.850098 4.44493 0.903452 4.34619 0.999623L1.00528 4.25353ZM13.1001 16.5565C13.0984 16.7056 13.0386 16.8451 12.9294 16.9515C12.8206 17.0576 12.6678 17.1196 12.5115 17.1196H2.48875C2.16055 17.1196 1.9001 16.8603 1.9001 16.5502V5.67678H4.1592C5.05913 5.67678 5.79781 4.96291 5.79781 4.07693V1.88057H12.5115C12.6678 1.88057 12.8205 1.94251 12.9294 2.04879C13.04 2.15647 13.1001 2.29852 13.1001 2.44998V16.5502V16.5565ZM4.15923 4.64631H2.09267L4.74784 2.06025V4.07693C4.74784 4.38703 4.48739 4.64631 4.15923 4.64631Z" fill="#707070" stroke="#707070" stroke-width="0.3"/>
    <path d="M10.0972 9.67702C9.89247 9.4777 9.56222 9.47768 9.35752 9.677L8.02507 10.9748V7.33115C8.02507 7.0429 7.78626 6.81592 7.50007 6.81592C7.21388 6.81592 6.97507 7.0429 6.97507 7.33115V10.9748L5.64263 9.67698C5.43789 9.47757 5.10765 9.47762 4.90296 9.67698C4.6961 9.8785 4.69609 10.2069 4.90295 10.4084L7.1293 12.5768C7.3275 12.776 7.67261 12.776 7.87081 12.5768L10.0971 10.4084C10.3041 10.2069 10.3041 9.87855 10.0972 9.67702Z" fill="#707070"/>
    <path d="M5.64263 9.67698L6.97507 10.9748V7.33115C6.97507 7.0429 7.21388 6.81592 7.50007 6.81592C7.78626 6.81592 8.02507 7.0429 8.02507 7.33115V10.9748L9.35752 9.677C9.56222 9.47768 9.89247 9.4777 10.0972 9.67702C10.3041 9.87855 10.3041 10.2069 10.0971 10.4084L7.87081 12.5768C7.67261 12.776 7.3275 12.776 7.1293 12.5768L4.90295 10.4084C4.69609 10.2069 4.6961 9.8785 4.90296 9.67698C5.10765 9.47762 5.43789 9.47757 5.64263 9.67698ZM5.64263 9.67698L5.5434 9.77886" stroke="#707070" stroke-width="0.3"/>
    <path d="M5.27354 14.896H9.72805C10.0142 14.896 10.253 14.669 10.253 14.3808C10.253 14.0925 10.0142 13.8655 9.72809 13.8655H5.27354C4.98735 13.8655 4.74854 14.0925 4.74854 14.3808C4.74854 14.669 4.98735 14.896 5.27354 14.896Z" fill="#707070" stroke="#707070" stroke-width="0.3"/>
  </g>
  <defs>
    <clipPath id="clip0_1979_44">
      <rect width="15" height="19" fill="white"/>
    </clipPath>
  </defs>
</svg>

<svg xmlns="http://www.w3.org/2000/svg" width="15" height="19" fill="none"><g clip-path="url(#clip0_1979_44)"><path d="M1.005 4.254a.51.51 0 00-.155.365V16.55c0 .886.739 1.6 1.639 1.6h10.023c.43 0 .852-.17 1.157-.467a1.57 1.57 0 00.481-1.133V2.45a1.57 1.57 0 00-.48-1.132A1.67 1.67 0 0012.51.85H4.716a.53.53 0 00-.37.15l-3.34 3.254zM13.1 16.557a.555.555 0 01-.17.395.604.604 0 01-.418.168H2.489a.58.58 0 01-.589-.57V5.677h2.26c.9 0 1.638-.714 1.638-1.6V1.88h6.713c.157 0 .31.062.418.168.111.107.171.25.171.401v14.106zM4.16 4.646H2.092L4.748 2.06v2.017c0 .31-.26.57-.589.57z" fill="#707070" stroke="#707070" stroke-width=".3"/><path d="M10.097 9.677a.532.532 0 00-.74 0l-1.332 1.298V7.33a.52.52 0 00-.525-.515.52.52 0 00-.525.515v3.644L5.643 9.677a.532.532 0 00-.74 0 .509.509 0 000 .731l2.226 2.169a.536.536 0 00.742 0l2.226-2.169a.508.508 0 000-.731z" fill="#707070"/><path d="M5.643 9.677l1.332 1.298V7.33a.52.52 0 01.525-.515.52.52 0 01.525.515v3.644l1.333-1.298c.204-.2.534-.2.74 0a.508.508 0 010 .731l-2.228 2.17a.536.536 0 01-.742 0l-2.226-2.169a.509.509 0 010-.731c.205-.2.535-.2.74 0zm0 0l-.1.102" stroke="#707070" stroke-width=".3"/><path d="M5.274 14.896h4.454a.52.52 0 00.525-.515.52.52 0 00-.525-.515H5.274a.52.52 0 00-.525.515.52.52 0 00.525.515z" fill="#707070" stroke="#707070" stroke-width=".3"/></g><defs><clipPath id="clip0_1979_44"><path fill="#fff" d="M0 0h15v19H0z"/></clipPath></defs></svg>
